assets/home/origin.svg

<svg width="30" height="36" viewBox="0 0 30 36" fill="none" xmlns="http://www.w3.org/2000/svg">
<path d="M16.7237 31.4405C15.3762 31.5304 14.1186 31.5304 12.7713 31.2608C10.8848 30.9016 9.08819 30.1829 7.47125 29.0152C5.04583 27.3084 3.33906 24.9727 2.35093 22.188C1.99162 21.11 1.72212 20.0321 1.63229 18.8644C1.3628 15.9898 2.17127 13.4746 3.51873 10.9593C5.85431 6.55759 9.35769 3.32371 13.4898 0.71864C13.7594 0.53898 14.1186 0.359321 14.3882 0.17966C14.5678 0.0898301 14.7474 0 15.017 0C15.2865 0 15.3762 0.17966 15.2865 0.359321C15.1966 0.53898 15.1068 0.628811 15.017 0.71864C14.2983 1.7966 14.0289 3.05423 13.7594 4.31184C14.5678 4.31184 15.2865 4.31184 16.0052 4.31184C18.6102 4.40167 20.9458 5.29998 23.0118 6.73726C25.4373 8.44403 27.144 10.7796 28.0424 13.5643C29.0304 16.5287 29.0304 19.4932 27.8627 22.4575C26.156 26.7694 23.3711 30.2728 19.6882 33.0575C18.5204 33.9558 17.2628 34.6744 16.0949 35.4829C15.9153 35.5727 15.7356 35.6626 15.556 35.7523C15.4661 35.7523 15.1966 35.7523 15.1068 35.6626C15.017 35.5727 15.1068 35.393 15.1966 35.3033C15.8254 34.3151 16.1848 33.2371 16.4542 32.1592C16.5441 32.0693 16.634 31.7999 16.7237 31.4405ZM15.1966 23.266C18.1611 23.266 20.5864 20.8405 20.5864 17.8762C20.5864 14.9118 18.1611 12.5762 15.2865 12.5762C12.3221 12.5762 9.89667 15.0017 9.89667 17.8762C9.89667 20.9304 12.2323 23.266 15.1966 23.266Z" fill="#DCDCDC"/>
</svg>

<svg xmlns="http://www.w3.org/2000/svg" width="30" height="36" fill="none" xmlns:v="https://vecta.io/nano"><path d="M16.724 31.441c-1.348.09-2.605.09-3.952-.18-1.886-.359-3.683-1.078-5.3-2.246-2.425-1.707-4.132-4.043-5.12-6.827-.359-1.078-.629-2.156-.719-3.324-.269-2.875.539-5.39 1.886-7.905C5.854 6.558 9.358 3.324 13.49.719c.27-.18.629-.359.898-.539.18-.09.359-.18.629-.18s.359.18.27.359a1.24 1.24 0 0 1-.27.359c-.719 1.078-.988 2.336-1.258 3.593h2.246c2.605.09 4.941.988 7.007 2.425 2.425 1.707 4.132 4.042 5.031 6.827.988 2.964.988 5.929-.18 8.893-1.707 4.312-4.492 7.815-8.175 10.6-1.168.898-2.425 1.617-3.593 2.425l-.539.269c-.09 0-.359 0-.449-.09s0-.27.09-.359c.629-.988.988-2.066 1.258-3.144.09-.09.18-.359.27-.719zm-1.527-8.175a5.41 5.41 0 0 0 5.39-5.39c0-2.964-2.425-5.3-5.3-5.3-2.964 0-5.39 2.425-5.39 5.3 0 3.054 2.336 5.39 5.3 5.39z" fill="#dcdcdc"/></svg>
